X:1
T:Title
%%score { ( 1 3 ) | ( 2 4 ) }
L:1/8
M:3/4
K:G
V:1 treble nm="Grand Piano"
V:3 treble 
V:2 bass 
V:4 bass 
V:1
 z2 z2[Q:1/4=100] [B,D]2 | [B,G]>[B,G] [DB]2 [CA]2 | [B,G]4 D2 | A>A c2 B2 |[M:2/4] A4 | %5
[M:1/4] D2 |[M:3/4] [DG]>[DG] [DG]2 A2 | B>B B2 d2 | F>F [A,EG]2[K:bass] [G,^CE]2 |[M:2/4] [F,D]4 | %10
[M:1/4][K:treble] [G,DG]2 |[M:3/4] [G,CE]>[G,CE] [G,CE]2 [G,EG]2 | [CE]2 D2 [G,DG]2 | %13
 [G,CE]>[G,CE] [G,CE]2 [G,CG]2 |[M:2/4] [CE]2 D2 |[M:1/4] [B,DG]2 | %16
[M:3/4] [DFA]>[DFA] [DFA]2 [DFB]2 | G>G G2 B2 | [Fd]4 z2 |[M:2/4] [B,DG]4 |] %20
V:2
 z2 z2 [G,,G,]2 | [G,,G,]>[G,,G,] [G,,G,]2 [G,,G,]2 | [G,,G,]4 [D,F,]2 | %3
 [D,F,D]>[D,F,D] [D,A,D]2 [D,G,D]2 |[M:2/4] [D,F,D]4 |[M:1/4] [D,F,]2 | %6
[M:3/4] [B,,G,]>[B,,G,] [B,,G,]2 [D,F,D]2 | [G,D]>[G,D] [G,D]2 [^G,B,D]2 | [A,D]>[A,D] A,,2 A,,2 | %9
[M:2/4] D,4 |[M:1/4] B,,2 |[M:3/4] C,>C, C,2 C,2 | z2 B,2 B,,2 | C,>C, C,2 E,2 |[M:2/4] z2 B,2 | %15
[M:1/4] G,2 |[M:3/4] D,>D, D,2 B,,2 | [E,B,E]>[E,B,E] [E,B,E]2 [E,G,E]2 | [D,A,]>D, D,2 D,2 | %19
[M:2/4] G,,4 |] %20
V:3
 x6 | x6 | x6 | x6 |[M:2/4] x4 |[M:1/4] x2 |[M:3/4] x6 | x6 | x4[K:bass] x2 |[M:2/4] x4 | %10
[M:1/4][K:treble] x2 |[M:3/4] x6 | G,4 z2 | x6 |[M:2/4] x4 |[M:1/4] x2 |[M:3/4] x6 | x6 | %18
 z z/ A,/ A,2 [CDF]2 |[M:2/4] x4 |] %20
V:4
 x6 | x6 | x6 | x6 |[M:2/4] x4 |[M:1/4] x2 |[M:3/4] x6 | x6 | x6 |[M:2/4] x4 |[M:1/4] x2 | %11
[M:3/4] x6 | G,,4 z2 | x6 |[M:2/4] G,4 |[M:1/4] x2 |[M:3/4] x6 | x6 | x6 |[M:2/4] x4 |] %20

